packages/icons/src/plane-fill.svg

<svg width="24" height="24" viewBox="0 0 24 24" fill="none" xmlns="http://www.w3.org/2000/svg">
<path d="M8.5 22V20.5L10.5 19V13.5L2 16V14L10.5 9V3.5C10.5 3.08333 10.6458 2.72917 10.9375 2.4375C11.2292 2.14583 11.5833 2 12 2C12.4167 2 12.7708 2.14583 13.0625 2.4375C13.3542 2.72917 13.5 3.08333 13.5 3.5V9L22 14V16L13.5 13.5V19L15.5 20.5V22L12 21L8.5 22Z" fill="black"/>
</svg>

<svg xmlns="http://www.w3.org/2000/svg" width="24" height="24" fill="none" viewBox="0 0 24 24">
  <path fill="#000" d="M8.5 22v-1.5l2-1.5v-5.5L2 16v-2l8.5-5V3.5c0-.417.146-.77.438-1.063A1.447 1.447 0 0 1 12 2c.417 0 .77.146 1.063.438.291.291.437.645.437 1.062V9l8.5 5v2l-8.5-2.5V19l2 1.5V22L12 21l-3.5 1Z"/>
</svg>
